src/resources/quote.svg

<svg width="54" height="44" viewBox="0 0 54 44" fill="none" xmlns="http://www.w3.org/2000/svg">
<g id="quote" clip-path="url(#clip0_34_4995)">
<path id="Vector" d="M0 22V43.7442H21.6V22H10.8C10.8 22 10.8 11.128 21.6 11.128V0.255859C21.6 0.255859 0 0.255859 0 22ZM54 11.128V0.255859C54 0.255859 32.4 0.255859 32.4 22V43.7442H54V22H43.2C43.2 22 43.2 11.128 54 11.128Z" fill="#D9DDDC"/>
</g>
<defs>
<clipPath id="clip0_34_4995">
<rect width="54" height="44" fill="white"/>
</clipPath>
</defs>
</svg>

<svg fill="none" height="44" viewBox="0 0 54 44" width="54" xmlns="http://www.w3.org/2000/svg" xmlns:xlink="http://www.w3.org/1999/xlink"><clipPath id="a"><path d="m0 0h54v44h-54z"/></clipPath><g clip-path="url(#a)"><path d="m0 22v21.7442h21.6v-21.7442h-10.8s0-10.872 10.8-10.872v-10.872141s-21.6 0-21.6 21.744141zm54-10.872v-10.872141s-21.6 0-21.6 21.744141v21.7442h21.6v-21.7442h-10.8s0-10.872 10.8-10.872z" fill="#d9dddc"/></g></svg>
